icons/communication/email-attach-24.svg

<svg width="24" height="24" viewBox="0 0 24 24" fill="none" xmlns="http://www.w3.org/2000/svg">
<path fill-rule="evenodd" clip-rule="evenodd" d="M18.75 13.5C18.3358 13.5 18 13.8358 18 14.25V19.25C18 19.6642 17.6642 20 17.25 20C16.8358 20 16.5 19.6642 16.5 19.25V14.25C16.5 13.0074 17.5074 12 18.75 12C19.9926 12 21 13.0074 21 14.25V19.375C21 21.377 19.377 23 17.375 23C15.373 23 13.75 21.377 13.75 19.375V16.75C13.75 16.3358 14.0858 16 14.5 16C14.9142 16 15.25 16.3358 15.25 16.75V19.375C15.25 20.5486 16.2014 21.5 17.375 21.5C18.5486 21.5 19.5 20.5486 19.5 19.375V14.25C19.5 13.8358 19.1642 13.5 18.75 13.5Z" fill="black"/>
<path fill-rule="evenodd" clip-rule="evenodd" d="M0 4.75C0 3.7835 0.783502 3 1.75 3H22.25C23.2165 3 24 3.7835 24 4.75V11.375C24 11.7892 23.6642 12.125 23.25 12.125C22.8358 12.125 22.5 11.7892 22.5 11.375V7.18716L12.7516 11.8231C12.276 12.0492 11.724 12.0492 11.2484 11.8231L1.5 7.18715V18.75C1.5 18.8881 1.61193 19 1.75 19H9.25C9.66421 19 10 19.3358 10 19.75C10 20.1642 9.66421 20.5 9.25 20.5H1.75C0.783502 20.5 0 19.7165 0 18.75V4.75ZM1.5 5.52618L11.8926 10.4685C11.9606 10.5008 12.0394 10.5008 12.1074 10.4685L22.5 5.52618V4.75C22.5 4.61193 22.3881 4.5 22.25 4.5H1.75C1.61193 4.5 1.5 4.61193 1.5 4.75V5.52618Z" fill="black"/>
</svg>

<svg xmlns="http://www.w3.org/2000/svg" width="24" height="24"><path fill-rule="evenodd" d="M18.75 13.5a.75.75 0 00-.75.75v5a.75.75 0 01-1.5 0v-5a2.25 2.25 0 014.5 0v5.125a3.625 3.625 0 01-7.25 0V16.75a.75.75 0 011.5 0v2.625a2.125 2.125 0 004.25 0V14.25a.75.75 0 00-.75-.75z"/><path fill-rule="evenodd" d="M0 4.75C0 3.784.784 3 1.75 3h20.5c.966 0 1.75.784 1.75 1.75v6.625a.75.75 0 01-1.5 0V7.187l-9.748 4.636a1.75 1.75 0 01-1.504 0L1.5 7.187V18.75c0 .138.112.25.25.25h7.5a.75.75 0 010 1.5h-7.5A1.75 1.75 0 010 18.75v-14zm1.5.776l10.393 4.943a.25.25 0 00.214 0L22.5 5.526V4.75a.25.25 0 00-.25-.25H1.75a.25.25 0 00-.25.25v.776z"/></svg>
